src/topics/icons/run-above.svg

<svg height="319" preserveAspectRatio="xMidYMid" viewBox="0 0 256 319" width="256" xmlns="http://www.w3.org/2000/svg"><path d="m128 0c-70.693 0-128 57.307-128 128s57.307 128 128 128 128-57.307 128-128-57.307-128-128-128zm-66.494 192.935 66.494-154.286 37.912 84.789h-29.912v30.165h43.4l17.587 39.332z"/><g fill="#fecc18"><path d="m46.921 226.701h23.204v23.002h-23.204z"/><path d="m70.064 249.372h23.454v23.002h-23.454z"/><path d="m93.207 272.168h23.787v23.002h-23.787z"/></g><path d="m93.207 249.372h23.537v23.002h-23.537z" fill="#ef7b1a"/><path d="m116.4 249.372h23.621v23.002h-23.621z" fill="#fecc18"/><path d="m139.57 249.372h23.454v22.534l-.253.312-.302.156h-22.899z" fill="#ef7b1a"/><path d="m116.413 294.985h23.156v23.155h-23.156z" fill="#fecc18"/><path d="m116.366 272.182h23.704v23.002l-23.658-.014z" fill="#ef7b1a"/><path d="m70.064 226.701h23.704v23.002h-23.704z" fill="#ef7b1a"/><path d="m139.57 272.213h23.204v22.971h-23.204z" fill="#fecc18"/><path d="m162.771 249.372h23.1v22.846h-23.1z" fill="#fecc18"/><path d="m93.207 226.701h23.704v23.002h-23.704z" fill="#fecc18"/><path d="m116.4 226.701h23.704v23.002h-23.704z" fill="#e84425"/><path d="m139.57 226.701h23.621v23.002h-23.621z" fill="#fecc18"/><path d="m162.771 226.701h23.621v23.002h-23.621z" fill="#ef7b1a"/><path d="m185.875 226.701h23.204v23.002h-23.204z" fill="#fecc18"/></svg>

<?xml version="1.0" encoding="UTF-8" standalone="no"?>
<svg width="256px" height="319px" viewBox="0 0 256 319" version="1.1" xmlns="http://www.w3.org/2000/svg" xmlns:xlink="http://www.w3.org/1999/xlink" preserveAspectRatio="xMidYMid">
	<g>
		<path d="M128,0 C57.307,0 0,57.307 0,128 C0,198.693 57.307,256 128,256 C198.693,256 256,198.693 256,128 C256,57.307 198.693,0 128,0 L128,0 Z M61.506,192.935 L128,38.649 L165.912,123.438 L136,123.438 L136,153.603 L179.4,153.603 L196.987,192.935 L61.506,192.935 L61.506,192.935 Z" fill="#000000"></path>
		<path d="M46.921,226.701 L70.125,226.701 L70.125,249.703 L46.921,249.703 L46.921,226.701 Z" fill="#FECC18"></path>
		<path d="M70.064,249.372 L93.518,249.372 L93.518,272.374 L70.064,272.374 L70.064,249.372 Z" fill="#FECC18"></path>
		<path d="M93.207,272.168 L116.994,272.168 L116.994,295.17 L93.207,295.17 L93.207,272.168 Z" fill="#FECC18"></path>
		<path d="M93.207,249.372 L116.744,249.372 L116.744,272.374 L93.207,272.374 L93.207,249.372 Z" fill="#EF7B1A"></path>
		<path d="M116.4,249.372 L140.021,249.372 L140.021,272.374 L116.4,272.374 L116.4,249.372 Z" fill="#FECC18"></path>
		<path d="M139.57,249.372 L163.024,249.372 L163.024,271.906 L162.771,272.218 L162.469,272.374 L139.57,272.374 L139.57,249.372" fill="#EF7B1A"></path>
		<path d="M116.413,294.985 L139.569,294.985 L139.569,318.14 L116.413,318.14 L116.413,294.985 Z" fill="#FECC18"></path>
		<path d="M116.366,272.182 L140.07,272.182 L140.07,295.184 L116.412,295.17 L116.366,272.182" fill="#EF7B1A"></path>
		<path d="M70.064,226.701 L93.768,226.701 L93.768,249.703 L70.064,249.703 L70.064,226.701 Z" fill="#EF7B1A"></path>
		<path d="M139.57,272.213 L162.774,272.213 L162.774,295.184 L139.57,295.184 L139.57,272.213 Z" fill="#FECC18"></path>
		<path d="M162.771,249.372 L185.871,249.372 L185.871,272.218 L162.771,272.218 L162.771,249.372 Z" fill="#FECC18"></path>
		<path d="M93.207,226.701 L116.911,226.701 L116.911,249.703 L93.207,249.703 L93.207,226.701 Z" fill="#FECC18"></path>
		<path d="M116.4,226.701 L140.104,226.701 L140.104,249.703 L116.4,249.703 L116.4,226.701 Z" fill="#E84425"></path>
		<path d="M139.57,226.701 L163.191,226.701 L163.191,249.703 L139.57,249.703 L139.57,226.701 Z" fill="#FECC18"></path>
		<path d="M162.771,226.701 L186.392,226.701 L186.392,249.703 L162.771,249.703 L162.771,226.701 Z" fill="#EF7B1A"></path>
		<path d="M185.875,226.701 L209.079,226.701 L209.079,249.703 L185.875,249.703 L185.875,226.701 Z" fill="#FECC18"></path>
	</g>
</svg>
